svgs/light/manhole.svg

<svg xmlns="http://www.w3.org/2000/svg" viewBox="0 0 512 512"><!-- Font Awesome Pro 6.0.0-alpha2 by @fontawesome - https://fontawesome.com License - https://fontawesome.com/license (Commercial License) --><path d="M256 16C123.451 16 16 123.451 16 256S123.451 496 256 496S496 388.549 496 256S388.549 16 256 16ZM256 464C141.309 464 48 370.691 48 256S141.309 48 256 48S464 141.309 464 256S370.691 464 256 464ZM256 80C158.799 80 80 158.797 80 256C80 353.201 158.799 432 256 432C353.203 432 432 353.201 432 256C432 158.797 353.203 80 256 80ZM271.68 398.414C270.848 390.359 264.273 384 256 384S241.152 390.359 240.32 398.414C168.365 390.48 112 330.033 112 256S168.365 121.52 240.32 113.586C241.152 121.641 247.727 128 256 128S270.848 121.641 271.68 113.586C343.635 121.52 400 181.967 400 256S343.635 390.48 271.68 398.414ZM192 176C183.164 176 176 183.162 176 192C176 200.836 183.164 208 192 208S208 200.836 208 192C208 183.162 200.836 176 192 176ZM192 240C183.164 240 176 247.162 176 256C176 264.836 183.164 272 192 272S208 264.836 208 256C208 247.162 200.836 240 192 240ZM256 240C247.164 240 240 247.162 240 256C240 264.836 247.164 272 256 272S272 264.836 272 256C272 247.162 264.836 240 256 240ZM256 176C247.164 176 240 183.162 240 192C240 200.836 247.164 208 256 208S272 200.836 272 192C272 183.162 264.836 176 256 176ZM320 176C311.164 176 304 183.162 304 192C304 200.836 311.164 208 320 208S336 200.836 336 192C336 183.162 328.836 176 320 176ZM320 240C311.164 240 304 247.162 304 256C304 264.836 311.164 272 320 272S336 264.836 336 256C336 247.162 328.836 240 320 240ZM320 304C311.164 304 304 311.162 304 320C304 328.836 311.164 336 320 336S336 328.836 336 320C336 311.162 328.836 304 320 304ZM256 304C247.164 304 240 311.162 240 320C240 328.836 247.164 336 256 336S272 328.836 272 320C272 311.162 264.836 304 256 304ZM192 304C183.164 304 176 311.162 176 320C176 328.836 183.164 336 192 336S208 328.836 208 320C208 311.162 200.836 304 192 304Z"/></svg>

<svg xmlns="http://www.w3.org/2000/svg" viewBox="0 0 512 512"><!--! Font Awesome Pro 6.0.0-alpha3 by @fontawesome - https://fontawesome.com License - https://fontawesome.com/license (Commercial License) --><path d="M192 304c-8.836 0-16 7.164-16 16s7.164 16 16 16s16-7.164 16-16S200.8 304 192 304zM256 240C247.2 240 240 247.2 240 256S247.2 272 256 272s16-7.164 16-16S264.8 240 256 240zM256 304c-8.836 0-16 7.164-16 16s7.164 16 16 16s16-7.164 16-16S264.8 304 256 304zM192 240C183.2 240 176 247.2 176 256S183.2 272 192 272S208 264.8 208 256S200.8 240 192 240zM192 176C183.2 176 176 183.2 176 192S183.2 208 192 208S208 200.8 208 192S200.8 176 192 176zM256 176C247.2 176 240 183.2 240 192S247.2 208 256 208s16-7.164 16-16S264.8 176 256 176zM320 304c-8.836 0-16 7.164-16 16s7.164 16 16 16s16-7.164 16-16S328.8 304 320 304zM256 80C158.8 80 80 158.8 80 256s78.8 176 176 176c97.2 0 176-78.8 176-176S353.2 80 256 80zM271.7 398.4C270.8 390.4 264.3 384 256 384s-14.85 6.359-15.68 14.41C168.4 390.5 112 330 112 256s56.37-134.5 128.3-142.4C241.2 121.6 247.7 128 256 128s14.85-6.359 15.68-14.41C343.6 121.5 400 181.1 400 256S343.6 390.5 271.7 398.4zM320 176c-8.836 0-16 7.164-16 16s7.164 16 16 16s16-7.164 16-16S328.8 176 320 176zM320 240c-8.836 0-16 7.164-16 16s7.164 16 16 16s16-7.164 16-16S328.8 240 320 240zM256 0C114.8 0 0 114.8 0 256s114.8 256 256 256s256-114.8 256-256S397.2 0 256 0zM256 480c-123.5 0-224-100.5-224-224s100.5-224 224-224s224 100.5 224 224S379.5 480 256 480z"/></svg>
